!!!!SEGMENT: pl-wtm--r-1653_stefani-jozef--spij-bohdanku-spij-kochanku.krn
!!!cenid: 18xx:2047
!!!COM: Stefani, Józef
!!!COM-rismID: pe30024097
!!!CDT: 1800/04/16-1876/03/19
!!!CNT: Polish
!!!OTL: Śpij Bohdanku, śpij, kochanku
!!!PDT:
!!!AGN: Secular
!!!YEC: Copyright 2022 Narodowy Instytut Fryderyka Chopina (https://polishscores.org)
!!!YEM: License CC-BY-4.0 (https://creativecommons.org/licenses/by/4.0)
!!!SMS-siglum: PL-Wtm
!!!SMS-shelfmark: R 1653
!!!SMS-shelfwork: W
!!!SMS-variant:
!!!SMS-altvar:
!!!NIFC-rismSourceID: 1001114895
!!!NIFC-rismChildID: 1001114895
!!!NIFC-islandoraID:
!!!URL-pdf-islandora:
!!!URL-scan:
!!!IIIF:
!!!ONB-nifc: UWAGA: No. 10, skan 0003
!!!OMD: No 10. Andantino.
!!!AIN: 1 empty 1 forte
!!!key:
**kern	**kern	**dynam	**kern	**text	**text	**text	**dynam
*part2	*part2	*	*part1	*	*	*	*
*staff3	*staff2	*	*staff1	*	*	*	*
*Iforte	*Iforte	*	*Iempty	*	*	*	*
*I"Fortepian	*I"Fortepian	*	*I"Dwuśpiew	*	*	*	*
*clefF4	*clefG2	*	*clefG2	*	*	*	*
*k[]	*k[]	*	*k[]	*	*	*	*
*C:	*C:	*	*C:	*	*	*	*
*M3/4	*M3/4	*	*M3/4	*	*	*	*
*>[A,B,A,B,B]	*>[A,B,A,B,B]	*>[A,B,A,B,B]	*>[A,B,A,B,B]	*>[A,B,A,B,B]	*>[A,B,A,B,B]	*>[A,B,A,B,B]	*>[A,B,A,B,B]
=1	=1	=1	=1	=1	=1	=1	=1
*>A	*>A	*>A	*>A	*>A	*>A	*>A	*>A
*^	*	*	*	*	*	*	*
*	*2\right	*	*	*	*	*	*	*
!LO:N:vis=2	!	!	!LO:DY:rj	!LO:TX:a:B:t=Pieśń matki przy kolebce Dziecka \nWiersz J. Kontrymowicza.	!	!	!	!LO:DY:rj
8CC/L	2.CC\	8.gL 8.e/	p	8.g 8.e/	1.) Spij	2.) Bo	.	p
(<8C/	.	.	.	.	.	.	.	.
.	.	16f#XJk 16d#X/	.	16f#X 16d#X/	boh-	na	.	.
8GG/	.	4g 4e/	.	4g 4e/	-dan-	świe-	.	.
8C/	.	.	.	.	.	.	.	.
8GG/	.	4e 4c/	.	4e 4c/	-ku	-cie	.	.
8C/J)	.	.	.	.	.	.	.	.
=2	=2	=2	=2	=2	=2	=2	=2	=2
*rep	*rep	*	*	*	*	*	*	*
!LO:N:vis=2	!	!	!	!	!	!	!	!
8CC/L	2.CC\	8.gL 8.e/	.	8.g 8.e/	Spij	mo-	.	.
(<8C/	.	.	.	.	.	.	.	.
.	.	16f#XJk 16d#X/	.	16f#X 16d#X/	Ko-	-je	.	.
8GG/	.	4g 4e/	.	4g 4e/	-chan-	dzie-	.	.
8C/	.	.	.	.	.	.	.	.
8GG/	.	4e 4c/	.	4e 4c/	-ku	-cie,	.	.
8C/J)	.	.	.	.	.	.	.	.
*Xrep	*Xrep	*	*	*	*	*	*	*
=3	=3	=3	=3	=3	=3	=3	=3	=3
!LO:N:vis=2	!	!	!	!	!	!	!	!
8CC/L	2.CC\	8.fnL 8.dn/	.	8.fn 8.dn/	Spij	Rój	.	.
(<8BB/	.	.	.	.	.	.	.	.
.	.	16gJk 16e/	.	16g 16e/	o	nas	.	.
8GG/	.	4a 4f/	.	4a 4f/	złot-	smut-	.	.
8BB/	.	.	.	.	.	.	.	.
8GG/	.	4b 4d/	.	4b 4d/	-ko	-ku	.	.
8D/J)	.	.	.	.	.	.	.	.
!!LO:LB:g=original
=4	=4	=4	=4	=4	=4	=4	=4	=4
!LO:N:vis=2	!	!	!	!	!	!	!	!
8CC/L	2.CC\	8cc 8e/	.	8cc 8e/	mo-	go-	.	.
(<8C/	.	8r	.	8r	.	.	.	.
8GG/	.	2g 2e/	.	2g 2e/	-je	-ni	.	.
8C/	.	.	.	.	.	.	.	.
8GG/	.	.	.	.	.	.	.	.
8C/J)	.	.	.	.	.	.	.	.
*v	*v	*	*	*	*	*	*	*
=5	=5	=5	=5	=5	=5	=5	=5
!	!	!LO:DY:rj	!	!	!	!	!LO:DY:rj
8.CL 8.CC/	8.ccL 8.e/	mf	8.cc 8.e/	A	.	.	mf
16EJk 16EE/	16bJk 16g/	.	16b 16g/	twe	.	.	.
4E 4EE/	4b 4g/	.	4b 4g/	skro-	Kto	.	.
4F 4FF/	4a 4f/	.	4a 4f/	-nie	cie	.	.
=6	=6	=6	=6	=6	=6	=6	=6
8.DL 8.DD/	8.ddL 8.f#X/	.	8.dd 8.f#X/	Ja	mój	.	.
16F#XJk 16FF#X/	16ccJk 16a/	.	16cc 16a/	os-	Klej-	.	.
4F# 4FF#/	4cc 4a/	.	4cc 4a/	-ło-	-no-	.	.
4G 4GG/	4b 4g/	.	4b 4g/	-nie;	-cie,	.	.
=7	=7	=7	=7	=7	=7	=7	=7
*^	*	*	*	*	*	*	*
!LO:N:vis=2	!	!	!	!	!	!	!	!
8GG\L	2.GG/	4.b 4.g 4.d/	.	4.b 4.g/	Bo	Przed	.	.
(8G\	.	.	.	.	.	.	.	.
8D\	.	.	.	.	.	.	.	.
8G\	.	8g/L	.	8g/	much	nie-	.	.
8D\	.	8a 8fn/	.	8a 8fn/	brzę-	-mi	.	.
8G\J)	.	8bJ 8d/	.	8b 8d/	-czą	o-	.	.
!!LO:LB:g=original
=8	=8	=8	=8	=8	=8	=8	=8	=8
8CC/L	4CC\	8cc 8e/	.	8cc 8e/	ro-	-sło-	.	.
8GG/J	.	8r	.	8r	.	.	.	.
2C 2CC/	2ryy	2c/	.	2c/	-je	-ni?	.	.
*v	*v	*	*	*	*	*	*	*
=9!|:	=9!|:	=9!|:	=9!|:	=9!|:	=9!|:	=9!|:	=9!|:
*>B	*>B	*>B	*>B	*>B	*>B	*>B	*>B
4.f>\	4.a/	.	4.a 4.f/	1.) Mu-	2.) Kto	3.) Niech	.
8e>\L	8cc/L	.	8cc 8e/	-cha	da	pierś	.
8d>\	8f/	.	8f 8d/	ma-	wo-	two-	.
8d-X>\J	8b-XJ 8f/	.	8b-X 8d/	-ła	-dy	-ję,	.
=10	=10	=10	=10	=10	=10	=10	=10
8c\L	8aL 8f/	.	8a 8f/	a-	dla	Dzie-	.
8c#X\J	8gJ 8e/	.	8g 8e/	-le	o-	-cię	.
4d\	4f 4d/	.	4f 4d/	śmia-	-chło-	mo-	.
4cn\	4f#X 4d/	.	4f#X 4c/	-ła	-dy	-je	.
!!LO:LB:g=original
=11	=11	=11	=11	=11	=11	=11	=11
8B-X\L	8gL 8d/	.	8g 8B-X/	musk-	Kto	sło-	.
8B-\J	8d/J	.	8d 8B-/	-nie	znój	-ni	.
4B-\	4g 4d/	.	4g 4B-/	cię	ot-	świę-	.
4F#X\	4a 4d/	.	4a 4d/	po	-rze	-ta	.
=12	=12	=12	=12	=12	=12	=12	=12
(8qGG/	.	.	.	.	.	.	.
4G 4GG/)	4b-X 4g 4d/	.	4b-X 4g/	czo-	z czo-	wia-	.
8D 8DD/	8a 8f#X 8d/	.	8a 8f#X/	-le	-ła	-ra	.
*clefG2	*	*	*	*	*	*	*
(16f#X/LL	(16ff#X\LL	.	8r	.	.	.	.
16a/J	16aa\J	.	.	.	.	.	.
8dd/J)	8ccc\J)	.	4r;	.	.	.	.
8r;	8r;	.	.	.	.	.	.
=13	=13	=13	=13	=13	=13	=13	=13
*clefF4	*	*	*	*	*	*	*
8G\L	8g/L	.	8g/	A	Kto	Bo	.
8A\J	8a/J	.	8a/	że	po-	cier-	.
4G\	4g/	.	4g/	pus-	-pieś-	-pie-	.
4D\	4d/	.	4d/	-ta	-ci	-nia	.
=14	=14	=14	=14	=14	=14	=14	=14
8E\L	8e/L	.	8e/	cmok-	wśród	o-	.
8A\J	8a/J	.	8a/	-nie	bo-	-pro-	.
4G\	4g/	.	4g/	w us-	-leś-	-mie-	.
4E-X\	4e-X/	.	4e-X/	-ta	-ci	-nia	.
!!LO:PB:g=original
=15	=15	=15	=15	=15	=15	=15	=15
8D/L	8d/L	.	8d/	w ocz-	mo-	szla-	.
8DJ 8DD/	8gJ 8d 8B/	.	8g 8B/	-ko	-je-	-chet-	.
4D 4DD/	4.b 4.g 4.d/	.	4.b 4.d/	cię	-go	-na	.
4D 4DD/	.	.	.	.	.	.	.
.	8a 8f#X 8d 8c/	.	8a 8f#X/	u-	A-	o-	.
=16	=16	=16	=16	=16	=16	=16	=16
8D 8DD/	8a 8f#X 8d 8c/	.	8a 8f#X/	-ko-	-nio-	-fia-	.
8r	8r	.	8r	.	.	.	.
8.GL 8.GG\	8.gL 8.d 8.B/	.	4g/	-le	-ła	-ra	.
16Fn\K	16fn/K	.	.	.	.	.	.
8.E\	8.e/	.	4r	.	.	.	.
16D\Jk	16d/Jk	.	.	.	.	.	.
=17	=17	=17	=17	=17	=17	=17	=17
*^	*	*	*	*	*	*	*
!LO:N:vis=2	!	!	!	!	!	!	!	!
8CC/L	2.CC\	8.gL 8.e/	p	8.g 8.e/	Mój	Cier-	Bo	.
(<8C/	.	.	.	.	.	.	.	.
.	.	16f#XJk 16d#X/	.	16f#X 16d#X/	boh-	-nie	Bóg	.
8GG/	.	4g 4e/	.	4g 4e/	-da-	gło-	w nie-	.
8C/	.	.	.	.	.	.	.	.
8GG/	.	4e 4c/	.	4e 4c/	-nie,	-gi,	-bie	.
8C/J)	.	.	.	.	.	.	.	.
!!LO:LB:g=original
=18	=18	=18	=18	=18	=18	=18	=18	=18
!LO:N:vis=2	!	!	!	!	!	!	!	!
8CC/L	2.CC\	8.gL 8.e/	.	8.g 8.e/	me	O!	wi-	.
(<8C/	.	.	.	.	.	.	.	.
.	.	16f#XJk 16d#X/	.	16f#X 16d#X/	Ko-	mój	-dzi	.
8GG/	.	4g 4e/	.	4g 4e/	-cha-	dro-	cie-	.
8C/	.	.	.	.	.	.	.	.
8GG/	.	4e 4c/	.	4e 4c/	-nie	-gi	-bie	.
8C/J)	.	.	.	.	.	.	.	.
=19	=19	=19	=19	=19	=19	=19	=19	=19
*rep	*rep	*	*	*	*	*	*	*
!LO:N:vis=2	!	!	!	!	!	!	!	!
8CC/L	2.CC\	8.fnL 8.dn/	.	8.fn 8.dn/	Ja	znaj-	Wi-	.
(<8C/	.	.	.	.	.	.	.	.
.	.	16gJk 16e/	.	16g 16e/	o-	-dziesz	-dzi	.
8GG/	.	4a 4f/	.	4a 4f/	-sło-	na	czy-	.
8C/	.	.	.	.	.	.	.	.
8GG/	.	4b 4f 4d/	.	4b 4d/	-nie	swej	-ny	.
8C/J)	.	.	.	.	.	.	.	.
*Xrep	*Xrep	*	*	*	*	*	*	*
=20	=20	=20	=20	=20	=20	=20	=20	=20
*rep	*rep	*	*	*	*	*	*	*
!LO:N:vis=2	!	!	!	!	!	!	!	!
8CC/L	2.CC\	8cc 8e/	.	8cc 8e/	cie-	dro-	two-	.
(<8C/	.	8r	.	8r	.	.	.	.
8GG/	.	2g 2e/	.	2g 2e/	-bie;	-dze,	-je	.
8C/	.	.	.	.	.	.	.	.
8GG/	.	.	.	.	.	.	.	.
8C/J)	.	.	.	.	.	.	.	.
*Xrep	*Xrep	*	*	*	*	*	*	*
*v	*v	*	*	*	*	*	*	*
=21	=21	=21	=21	=21	=21	=21	=21
!	!	!	!	!	!	!	!LO:DY:a
8.CL 8.CC/	8.ccL 8.e/	mf	8.cc 8.e/	Od	Wyt-	służ	mf
16EJk 16EE/	16bJk 16g/	.	16b 16g/	much	-knij	co	.
4E 4EE/	4b 4g/	.	4b 4g/	w le-	ce-	si-	.
4F 4FF/	4a 4f/	.	4a 4f/	-cie	-le	-ły	.
!!LO:LB:g=original
=22	=22	=22	=22	=22	=22	=22	=22
8.DL 8.DD/	8.ddL 8.f#X/	.	8.dd 8.f#X/	dro-	I	służ	.
16F#XJk 16FF#X/	16ccJk 16a/	.	16cc 16a/	-gie	dąż	co	.
4F# 4FF#/	4cc 4a/	.	4cc 4a/	dzie-	śmie-	si-	.
4G 4GG/	4b 4g/	.	4b 4g/	-cię	-le	-ły	.
=23	=23	=23	=23	=23	=23	=23	=23
*^	*	*	*	*	*	*	*
!LO:N:vis=2	!	!	!	!	!	!	!	!
8GG\L	2.GG/	4.b 4.g 4.d/	.	4.b 4.g/	Od	Choć	służ	.
8G\	.	.	.	.	.	.	.	.
8D\	.	.	.	.	.	.	.	.
8G\	.	8g/L	.	8g/	cio-	cierń	o	.
8D\	.	8a 8f/	.	8a 8fn/	-sów	ut-	ser-	.
8G\J	.	8bJ 8d/	.	8b 8d/	w pot-	-kwi	-ce	.
=24	=24	=24	=24	=24	=24	=24	=24	=24
8CC/L	4CC\	8cc 8e/	.	8cc 8e/	-rze-	w no-	mo-	.
8GG/J	.	8r	.	8r	.	.	.	.
2C 2CC/	2ryy	2c/	.	2c/	-bie	-dze,	-je!	.
*v	*v	*	*	*	*	*	*	*
=:|!	=:|!	=:|!	=:|!	=:|!	=:|!	=:|!	=:|!
*-	*-	*-	*-	*-	*-	*-	*-
!!!system-decoration: s1{(s2,s3)}
!!!RDF**kern: > = above
!!!RDF**kern: < = below
!!!ENC: Marta Lawrence
!!!END: 2021-05-07
!!!ENC: Tomasz Grochalski
!!!END: 2021-04-24
